components/bpmn-q/modeler-component/extensions/quantme/resources/quantum-circuit-object.svg

<?xml version="1.0" encoding="UTF-8" standalone="no"?>
<svg
   width="180"
   height="180"
   overflow="hidden"
   version="1.1"
   id="svg271"
   sodipodi:docname="quantum-circuit-object.svg"
   inkscape:version="1.2.2 (732a01da63, 2022-12-09)"
   xmlns:inkscape="http://www.inkscape.org/namespaces/inkscape"
   xmlns:sodipodi="http://sodipodi.sourceforge.net/DTD/sodipodi-0.dtd"
   xmlns="http://www.w3.org/2000/svg"
   xmlns:svg="http://www.w3.org/2000/svg">
  <sodipodi:namedview
     id="namedview273"
     pagecolor="#ffffff"
     bordercolor="#000000"
     borderopacity="0.25"
     inkscape:showpageshadow="2"
     inkscape:pageopacity="0.0"
     inkscape:pagecheckerboard="0"
     inkscape:deskcolor="#d1d1d1"
     showgrid="false"
     inkscape:zoom="1.3111111"
     inkscape:cx="90"
     inkscape:cy="90.381356"
     inkscape:window-width="1920"
     inkscape:window-height="1111"
     inkscape:window-x="-9"
     inkscape:window-y="-9"
     inkscape:window-maximized="1"
     inkscape:current-layer="svg271" />
  <defs
     id="defs241">
    <clipPath
       id="clip0">
      <rect
         x="410"
         y="115"
         width="180"
         height="180"
         id="rect238" />
    </clipPath>
  </defs>
  <g
     clip-path="url(#clip0)"
     transform="translate(-410 -115)"
     id="g249">
    <path
       d="M457.659 139.5 518.325 139.5 548.5 169.675 548.5 264.5 457.5 264.5 457.5 139.659C457.5 139.571 457.571 139.5 457.659 139.5Z"
       stroke="#34212E"
       stroke-width="6.66667"
       stroke-linecap="round"
       stroke-linejoin="round"
       stroke-miterlimit="10"
       fill="none"
       fill-rule="evenodd"
       id="path243" />
    <path
       d="M518.5 139.5 518.5 170.508"
       stroke="#34212E"
       stroke-width="6.66667"
       stroke-linecap="round"
       stroke-linejoin="round"
       stroke-miterlimit="10"
       fill="none"
       fill-rule="evenodd"
       id="path245" />
    <path
       d="M0 0 29.4488 0.000104987"
       stroke="#34212E"
       stroke-width="6.66667"
       stroke-linecap="round"
       stroke-linejoin="round"
       stroke-miterlimit="10"
       fill="none"
       fill-rule="evenodd"
       transform="matrix(-1 0 0 1 547.949 170.5)"
       id="path247" />
  </g>
  <g
     clip-path="url(#clip85612665212)"
     transform="matrix(0.55290481,0,0,0.53734092,-131.01782,-121.16488)"
     id="g269">
    <path
       d="M 340.5,370.5 H 469.803"
       stroke="#000000"
       stroke-width="5.33333"
       stroke-miterlimit="8"
       fill="none"
       fill-rule="evenodd"
       id="path251" />
    <path
       d="M 340.5,408.5 H 469.803"
       stroke="#000000"
       stroke-width="5.33333"
       stroke-miterlimit="8"
       fill="none"
       fill-rule="evenodd"
       id="path253" />
    <path
       d="M 340.5,450.5 H 469.803"
       stroke="#000000"
       stroke-width="5.33333"
       stroke-miterlimit="8"
       fill="none"
       fill-rule="evenodd"
       id="path255" />
    <path
       d="m 380.5,370.5 v 94.811"
       stroke="#000000"
       stroke-width="5.33333"
       stroke-miterlimit="8"
       fill="none"
       fill-rule="evenodd"
       id="path257" />
    <path
       d="m 364.5,450 c 0,-9.113 7.164,-16.5 16,-16.5 8.837,0 16,7.387 16,16.5 0,9.113 -7.163,16.5 -16,16.5 -8.836,0 -16,-7.387 -16,-16.5 z"
       stroke="#000000"
       stroke-width="5.33333"
       stroke-miterlimit="8"
       fill="none"
       fill-rule="evenodd"
       id="path259" />
    <path
       d="m 370.5,371.5 c 0,-6.075 4.701,-11 10.5,-11 5.799,0 10.5,4.925 10.5,11 0,6.075 -4.701,11 -10.5,11 -5.799,0 -10.5,-4.925 -10.5,-11 z"
       stroke="#000000"
       stroke-width="5.33333"
       stroke-miterlimit="8"
       fill="#404040"
       fill-rule="evenodd"
       id="path261" />
    <path
       d="m 416.5,408.5 c 0,-8.836 7.164,-16 16,-16 8.837,0 16,7.164 16,16 0,8.837 -7.163,16 -16,16 -8.836,0 -16,-7.163 -16,-16 z"
       stroke="#000000"
       stroke-width="5.33333"
       stroke-miterlimit="8"
       fill="none"
       fill-rule="evenodd"
       id="path263" />
    <path
       d="m 421.5,449 c 0,-5.799 4.925,-10.5 11,-10.5 6.075,0 11,4.701 11,10.5 0,5.799 -4.925,10.5 -11,10.5 -6.075,0 -11,-4.701 -11,-10.5 z"
       stroke="#000000"
       stroke-width="5.33333"
       stroke-miterlimit="8"
       fill="#404040"
       fill-rule="evenodd"
       id="path265" />
    <path
       d="m 432.5,393.5 v 54.956"
       stroke="#000000"
       stroke-width="5.33333"
       stroke-miterlimit="8"
       fill="none"
       fill-rule="evenodd"
       id="path267" />
  </g>
</svg>

<svg width="133" height="112" xmlns="http://www.w3.org/2000/svg" xmlns:xlink="http://www.w3.org/1999/xlink" overflow="hidden"><defs><clipPath id="clip0"><rect x="339" y="357" width="133" height="112"/></clipPath></defs><g clip-path="url(#clip0)" transform="translate(-339 -357)"><path d="M340.5 370.5 469.803 370.5" stroke="#000000" stroke-width="5.33333" stroke-miterlimit="8" fill="none" fill-rule="evenodd"/><path d="M340.5 408.5 469.803 408.5" stroke="#000000" stroke-width="5.33333" stroke-miterlimit="8" fill="none" fill-rule="evenodd"/><path d="M340.5 450.5 469.803 450.5" stroke="#000000" stroke-width="5.33333" stroke-miterlimit="8" fill="none" fill-rule="evenodd"/><path d="M380.5 370.5 380.5 465.311" stroke="#000000" stroke-width="5.33333" stroke-miterlimit="8" fill="none" fill-rule="evenodd"/><path d="M364.5 450C364.5 440.887 371.664 433.5 380.5 433.5 389.337 433.5 396.5 440.887 396.5 450 396.5 459.113 389.337 466.5 380.5 466.5 371.664 466.5 364.5 459.113 364.5 450Z" stroke="#000000" stroke-width="5.33333" stroke-miterlimit="8" fill="none" fill-rule="evenodd"/><path d="M370.5 371.5C370.5 365.425 375.201 360.5 381 360.5 386.799 360.5 391.5 365.425 391.5 371.5 391.5 377.575 386.799 382.5 381 382.5 375.201 382.5 370.5 377.575 370.5 371.5Z" stroke="#000000" stroke-width="5.33333" stroke-miterlimit="8" fill="#404040" fill-rule="evenodd"/><path d="M416.5 408.5C416.5 399.664 423.664 392.5 432.5 392.5 441.337 392.5 448.5 399.664 448.5 408.5 448.5 417.337 441.337 424.5 432.5 424.5 423.664 424.5 416.5 417.337 416.5 408.5Z" stroke="#000000" stroke-width="5.33333" stroke-miterlimit="8" fill="none" fill-rule="evenodd"/><path d="M421.5 449C421.5 443.201 426.425 438.5 432.5 438.5 438.575 438.5 443.5 443.201 443.5 449 443.5 454.799 438.575 459.5 432.5 459.5 426.425 459.5 421.5 454.799 421.5 449Z" stroke="#000000" stroke-width="5.33333" stroke-miterlimit="8" fill="#404040" fill-rule="evenodd"/><path d="M432.5 393.5 432.5 448.456" stroke="#000000" stroke-width="5.33333" stroke-miterlimit="8" fill="none" fill-rule="evenodd"/></g></svg>
